!!!!SEGMENT: pl-sa--197-a-vi-1--001_anonim--requiem-es-requiem.krn
!!!cenid: 17xx:1672
!!!COM: Anonim
!!!COM-rismID: pe30004985
!!!CDT:
!!!CNT:
!!!OPR: Requiem Es
!!!OTL: Requiem
!!!OMV: 001
!!!PDT:
!!!AGN: Sacred; Requiem
!!!SMS-siglum: PL-SA
!!!SMS-shelfmark: 197/A VI 1
!!!SMS-shelfwork: 001-001 M
!!!SMS-variant:
!!!SMS-altvar:
!!!NIFC-rismSourceID: 1001070179
!!!NIFC-islandoraID:
!!!URL-pdf-islandora:
!!!URL-scan: https://bc.bdsandomierz.pl/dlibra/publication/1533/edition/1501/content @EN{Scan on Cyfrowa Biblioteka Diecezjalna w Sandomierzu} @PL{Skany w portalu Cyfrowa Biblioteka Diecezjalna w Sandomierzu}
!!!ONB-nifc: UWAGA: części Requiem: 1. Requiem, 2. Kirie, 3. Dies irae, 4. Domine Jesu Christe, 5. Sanctus, 6. Osanna, 7. Benedictus, 8. Agnus Dei, 9. Lux aeterna
!!!AIN: 1 alto 2 empty
!!!key:
**kern	**text	**kern	**text	**kern	**text
*part3	*part3	*part2	*part2	*part1	*part1
*staff3	*staff3	*staff2	*staff2	*staff1	*staff1
*Iempty	*	*Ialto	*	*Iempty	*
*I"Baſſo	*	*I"Alto	*	*I"Canto:.	*
*I'B	*	*I'A	*	*I'S	*
*clefF4	*	*clefC3	*	*clefC1	*
*k[b-e-a-]	*	*k[b-e-a-]	*	*k[b-e-a-]	*
*E-:	*	*E-:	*	*E-:	*
*M4/4	*	*M4/4	*	*M4/4	*
*met(c)	*	*met(c)	*	*met(c)	*
=1	=1	=1	=1	=1	=1
!LO:TX:t=P:problem=podwojone znaki przykluczowe b i as	!	!	!	!LO:TX:t=P: all\right:problem	!
4.E-\	Re-	4.e-\	Re-	4.g/	Re-
8E-\	-qui-	8e-\	-qui-	8g/	-qui-
4E-\	-em	4e-\	-em	4g/	-em
4D/	e-	4f\	e-	4b-\	ae-
=2	=2	=2	=2	=2	=2
4C/	-ter-	8g\L	-ter-	8b-\L	-ter-
.	.	16f\L	.	16a-\L	.
.	.	16e-\JJ	.	16g\JJ	.
4F\	.	4f\	.	4a-\	.
4BB-/	-nam	8f\L	.	8a-\L	.
.	.	16e-\L	.	16g\L	.
.	.	16d\JJ	.	16f\JJ	.
!LO:TX:t=P:problem=mixed beam	!	!	!	!	!
(8E-\L	e-	8e-\L	-nam	8g/	-nam
8AA-/J)	.	8e-\J	e-	8f/	ae-
=3	=3	=3	=3	=3	=3
4BB-/	-ter-	8e-\L	-ter-	4f/	-ter-
.	.	8d\J	.	.	.
4BB-/	-nam	4d\	-nam	4f/	-nam
2r	.	2r	.	2r	.
=4	=4	=4	=4	=4	=4
2r	.	2r	.	2r	.
4.BB-/	Re-	4.f\	Re-	4.b-\	re-
8BB-/	-qui-	8f\	-qui-	8b-\	-qui-
=5	=5	=5	=5	=5	=5
4.E-\	-em	4g\	-em	4b-\	-em
.	.	4g\	e-	4ee-\	E-
8C/	e-	.	.	.	.
8F\	-ter-	8f\	-ter-	8cc\	-ter-
8F\	-nam	8f\	-nam	8cc\	-nam
8D\	do-	8f\	do-	8dd\	do-
8D\	-na	8f\	-na	8dd\	-na
=6	=6	=6	=6	=6	=6
8E-\	e-	8g\	e-	8b-\	e-
8E-\	-is	8g\	-is	8cc\	-is
8F\	Do-	8.f\	Do-	8dd\	Do-
8FF/	-mi-	.	.	(16cc\LL	-mi-
.	.	16f\	mi-	16b-\JJ)	.
8BB-/	-ne	8f\	-ne	8b-\	-ne
!	!	!	!	!LO:LB:g=original	!
8B-\	et	8f\	et	8dd\	Et
!LO:LB:g=original	!	!	!	!	!
8B-\	lux	8f\	Lux	8dd\	Lux
8B-\	per-	8f\	per-	8dd\	per-
!	!	!LO:LB:g=original	!	!	!
=7	=7	=7	=7	=7	=7
8E-\	-pe-	8g\	-pe-	8ee-\	-pe-
16E-\	-tu-	16g\	-tu-	16ee-\LL	-tu-
16E-\	-a	16g\	-a	16ee-\JJ	-a,
8A-\	lu-	8e-\	Lu-	8cc\	Lu-
16A-\	-ce-	16e-\	-ce-	16cc\	-ce-
16A-\	-at	16e-\	-at	16cc\	-at
8D/	e-	8f\	e-	8ee-\	e-
8D/	-is	8f\	-is	8dd\	-is
8G\	lu-	8d\	lux	8b-\	Lux
16G\	-ce-	8d\	per-	8b-\	per-
16G\	-at	.	.	.	.
=8	=8	=8	=8	=8	=8
8C/	e-	8e-\	-pe-	8cc\	-pe-
8C/	-is	16e-\	-tu-	16cc\	-tu-
.	.	16e-\	-a	16cc\	-a,
8F\	lux	8e-\	lu-	8a-\	Lu-
8A-\	per-	16e-\	-ce-	16a-\	-ce-
.	.	16e-\	-at	16a-\	-at
8BB-/	-pe-	8f\	e-	8b-\	e-
16BB-/	-tu-	8f\	-is	8b-\	-is,
16BB-/	-a	.	.	.	.
8E-\	lu-	8f\	lu-	8b-\	Lu-
16F\	-ce-	16g\	-ce-	16b-\	-ce-
16F\	-at	16f\	-at	16a-\	-at
=9	=9	=9	=9	=9	=9
8G\	lu-	8e-\	lu-	8g/	e-
16A-\	-ce-	16f\	-ce-	8f/	-is
16A-\	-at	16e-\	-at	.	.
!LO:TX:t=P:problem=mixed beam	!	!	!	!	!
(8B-\L	e-	(8e-\L	e-	8g/L	e-
8BB-/J)	.	8d\J)	.	(16f/L	.
.	.	.	.	16e-/JJ)	.
4E-\	-is	4e-\	-is	4e-/	-is
!	!	!	!	!LO:LB:g=original	!
8BB-/	lu-	8d\	lu-	8f/	Lu-
16BB-/	-ce-	16d\	-ce-	16f/	-ce-
16BB-/	-at	16d\	-at	16f/	-at
!LO:LB:g=original	!	!	!	!	!
=10	=10	=10	=10	=10	=10
8E-\	e-	8e-\	e-	8g/	e-
8E-\	-is	8e-\	-is	8g/	-is.
4r	.	4r	.	4r	.
2r	.	2r	.	2r	.
!	!	!LO:LB:g=original	!	!	!
=11:|!|:	=11:|!|:	=11:|!|:	=11:|!|:	=11:|!|:	=11:|!|:
*M4/4	*	*	*	*	*
*met(c)	*	*	*	*	*
!	!	!	!	!LO:TX:a:rj:t=Solo	!
00r	.	8r	.	8r	.
.	.	8e-\	Te	8g/	Te
.	.	8e-\	de-	8g/	de-
.	.	8f\	-cet	8a-\	-cet
.	.	(16g\LL	hym-	8b-\	hym-
.	.	16f\JJ)	.	.	.
.	.	8e-\	-nus	8g/	-nus
.	.	4r	.	4r	.
=12	=12	=12	=12	=12	=12
.	.	8r	.	8r	.
.	.	8e-\	Te	8g/	Te
.	.	8e-\	de-	8g/	de-
.	.	8f\	-cet	8a-\	-cet
.	.	8g\	hym-	8b-\	hym-
.	.	8e-\	-nus	8g/	-nus
.	.	8e-\	De-	8b-\	De-
.	.	16e-\	-us	16b-\	-us
.	.	16g\	in	16ee-\	in
=13	=13	=13	=13	=13	=13
.	.	8f\	Si-	8dd\	Si-
.	.	8f\	-on	8dd\	-on
.	.	4r	.	4r	.
.	.	8r	.	8r	.
.	.	8f\	Et	8dd\	Et
.	.	8f\	ti-	8dd\	ti-
.	.	16e-\	-bi	16cc\	-bi
!	!	!	!	!LO:TX:a:t=d	!
.	.	16f\	re-	16dd\	re-
!	!	!	!	!LO:LB:g=original	!
=14	=14	=14	=14	=14	=14
.	.	8d\	-de-	8b-\	-de-
.	.	8d\	-tur	8b-\	-tur
.	.	8e-\	vo-	8cc\	vo-
.	.	8d\	-tum	8b-\	-tum
.	.	8c/	in	8an\	in
.	.	16d\LL	Je-	8b-\	Je-
.	.	16c\JJ	.	.	.
.	.	8c\	-ru-	8b-\	-ru-
.	.	8d\	-ſa-	8an\	-ſa-
=15	=15	=15	=15	=15	=15
8r	.	4B-/	-lem	4b-\	-lem.
8BB-/	E-	.	.	.	.
16BB-/LL	-xau-	4r	.	4r	.
16C/	.	.	.	.	.
16D/	.	.	.	.	.
16E-/JJ	.	.	.	.	.
16F\LL	.	2r	.	2r	.
16E-\	.	.	.	.	.
16F\	.	.	.	.	.
16G\JJ	.	.	.	.	.
16An\LL	.	.	.	.	.
16F\	.	.	.	.	.
16G\	.	.	.	.	.
16A\JJ	.	.	.	.	.
=16	=16	=16	=16	=16	=16
4B-\	.	00r	.	00r	.
8B-\	-di	.	.	.	.
8B-\	O-	.	.	.	.
8G\	-ra-	.	.	.	.
8E-\	-ti-	.	.	.	.
8F\	-o-	.	.	.	.
8G\	-nem	.	.	.	.
=17	=17	=17	=17	=17	=17
4A-\	me-	.	.	.	.
8A-\	-am	.	.	.	.
8A-\	o-	.	.	.	.
8F\	-ra-	.	.	.	.
8D\	-ti-	.	.	.	.
8E-\	-o-	.	.	.	.
8F\	-nem	.	.	.	.
!LO:LB:g=original	!	!	!	!	!
=18	=18	=18	=18	=18	=18
4G\	me-	.	.	.	.
8G\	-am	.	.	.	.
8G\	O-	.	.	.	.
8E-\	-ra-	.	.	.	.
8C/	-ti-	.	.	.	.
8D/	-o-	.	.	.	.
8E-\	-nem	.	.	.	.
=19	=19	=19	=19	=19	=19
8F\	me-	.	.	.	.
8F\	-am	.	.	.	.
8D/	ad	.	.	.	.
8D/	te	.	.	.	.
8E-\	om-	.	.	.	.
8D\	-nis	.	.	.	.
8C/	Ca-	.	.	.	.
8BB-/	-ro	.	.	.	.
=20	=20	=20	=20	=20	=20
8F\L	Ve-	0r	.	0r	.
16G\L	.	.	.	.	.
16E-\JJ	.	.	.	.	.
!LO:TX:t=P:problem=mixed beam	!	!	!	!	!
8F\L	-ni	.	.	.	.
8FF/J	.	.	.	.	.
4BB-/	et	.	.	.	.
8B-\	ad	.	.	.	.
8B-\	te	.	.	.	.
=21	=21	=21	=21	=21	=21
8G\	om-	.	.	.	.
8E-\	-nis	.	.	.	.
8F\	et	.	.	.	.
8G\	.	.	.	.	.
4A-\	Ca-	.	.	.	.
4E-\	-ro	.	.	.	.
=22	=22	=22	=22	=22	=22
!	!	!	!	!LO:TX:a:t=Requiem Ut \nSupra	!
4.BB-/	ve-	1r	.	1r	.
8BB-/	-ni	.	.	.	.
*2\right	*	*	*	*	*
!LO:TX:a:t=Da capo	!	!	!	!	!
2E-\	et	.	.	.	.
==	==	==	==	==	==
*-	*-	*-	*-	*-	*-
!!!system-decoration: [(s1,s2,s3)]
!!!ENC: Tomasz Grochalski
!!!END: 2020-12-27
!!!ENC: Leszek Kubiak
!!!END: 2022-04-07
